X: 1
T: Mickie Ainsworth
C: Ronald Cooper (1934-1982)
Z: 2007 John Chambers <jc:trillian.mit.edu>
M: C|
L: 1/8
K: D
FG \
| "D"ABAF Adcd \
| "G"B2BA BdcB \
| "D"ABde "Bm"fedf \
| "E7"e2E2 "A7"E2FG |
| "D"ABAF Adcd \
| "G"Bggf gBdg \
| "D"fAdf "A7"eAce \
| "D"d2"G"d2 "D"d2 :|
|: cd \
| "A7"ea^ga e=gfe \
| "D"d2fd adfd \
| "G"gfeg "D"f2df \
| "Em"efed "G"B2dB |
| "D"ABAF Adcd \
| "G"Bggf gBdg \
| "D"fAdf "A7"eAce \
| "D"d2"G"d2 "D"d2 :|

%%sep 1 1 500

